X:1
T:Vals efter Nylandspojkarna
R:Vals
O:Bingsjö, Dalarna
G:Fiol
H:Låten spelades på Dalaföreningen i Stockholm under 1980-talet
S:Hans Börtas
Z: Lars Ljunggren
M:3/4
L:1/8
K:A
Ac|:e4ef|e4ed|c2B2A2|B4Bc|
d2c2d2|f2edeg|b2agab|1a2A2c2 :|2 a4e2|]
|:egbegb|egbegb|eac'eac'|eac'eac'|egbegb|egbegb|a3ba=g|
f2e2d2|c2Ace2|eddEGB|BAAcea|a2fdfa|d2cAe2|eddEGB|1A4e2:|2A4|]

